X: 31
T: Soldier's Joy
R: reel
M: C|
L: 1/8
Z: 2010 John Chambers <jc:trillian.mit.edu>
B: Anonymous manuscript tune book (1800-1840) p.4
F: http://www.asaplive.com/archive/browse_by_collection.asp
N: The asaplive.com web site is complex, and links to its files don't usually work.
K: D
FG |\
(AF)DF (AF)DF | A2d2 d2(cB) | (Ad)cB (AG)FA | G2E2 E2(FG) |
(AF)DF (AF)DF | A2d2 d2f2 | (af)df (ge)ce | d2d2 d2 :|
|: g2 |\
(fd)fg (fa)gf | (ec)ef (eg)fe | (fd)fg (fa)gf | (ed)cB A2g2 |
(fd)fg (fa)gf | (ec)ef (eg)fe | (af)df (ge)ce | d2d2 d2 :|


%%sep 5 1 500

